assets/icons/librescoot-main-battery-asleep-mask.svg

<svg xmlns="http://www.w3.org/2000/svg" width="144" height="144" fill="none" viewBox="0 0 144 144"><g clip-path="url(#a)"><path fill="#fff" d="m100.649 12.2681 8-8h30.437l8 8v6.8047l-1.685 4.9101-7.514 9.665h1.837l8 8v8.3526l-8 8h-28.89l-6.088 6.0879H82.3378l-7.9698 7.9697H54.5468l-8-8v-3.8994l1.7763-5.0274 3.6016-4.458-4.9785-4.9775v-5.2197l8-8h16.7754l-.8711-.8711v-6.96l8-8h21.7985z"/></g><defs><clipPath id="a"><path fill="#fff" d="M0 0h144v144H0z"/></clipPath></defs></svg>

<svg width="144" height="144" viewBox="0 0 144 144" fill="none" xmlns="http://www.w3.org/2000/svg">
<g clip-path="url(#clip0_655_595)">
<path d="M100.649 12.2681L108.649 4.26807H139.086L147.086 12.2681V19.0728L145.401 23.9829L137.887 33.6479H139.724L147.724 41.6479V50.0005L139.724 58.0005H110.834L104.746 64.0884H82.3378L74.368 72.0581H54.5468L46.5468 64.0581V60.1587L48.3231 55.1313L51.9247 50.6733L46.9462 45.6958V40.4761L54.9462 32.4761H71.7216L70.8505 31.605V24.645L78.8505 16.645H100.649V12.2681Z" fill="white"/>
</g>
<defs>
<clipPath id="clip0_655_595">
<rect width="144" height="144" fill="white"/>
</clipPath>
</defs>
</svg>
